X:1
T:Title
%%score ( 1 2 ) ( 3 4 )
L:1/8
Q:1/4=100
M:4/4
K:D
V:1 treble nm="Strings 1, Soprano"
V:2 treble 
V:3 bass nm="Strings 1, Bass"
V:4 bass 
V:1
 z4 z2 D[DF] | [FA]2 [EA]2 [FA]2 [DF][EA] | [Fd]2 [Fd]2 [Fd][GB] F2 | [CE]2 [DE]2 [CE]2 D[CE] | %4
 [DF]2 [EG]2 [CA]2 D[DF] | [FA]2 [EA]2 [FA]2 [DF][EA] | [Fd]2 [Fd]2 [Fd][GB] F2 | %7
 E2 [DE]2 [CE]2 [DF][CE] | [A,D]2 [B,D]2 [A,D]2[Q:1/4=100] FG[Q:1/4=12] | A2 [FA]2 [EA]2 F[FA] | %10
 [Fd]2 [Fd]2 [Gd][GB] [DF]2 | [CE]2 [DE]2 [CE]2 [CD][CE] | [DF]2 [D^G]2 [CA]2 D[DF] | %13
 [FA]2 [EA]2 [FA]2 [DF][EA] | [Fd]2 [Fd]2 dB [DF]2 | [CE]4 [DF]2 [CE]2 | D6 z2 |] %17
V:2
 x8 | x8 | x8 | x8 | x8 | x8 | x8 | x8 | x8 | x8 | x8 | x8 | x8 | x8 | z4 F2 z2 | x8 | x8 |] %17
V:3
 z4 z2 F,A, | [D,D]2 [E,C]2 [F,D]2 [F,D][G,C] | [D,D]2 [D,D]2 [D,D][D,B,] [D,D]2 | %3
w: 1.~Though~ the~|rain~ may~ fall~ and~ the~|wind~ be~ blow ing,~ And~|
 [A,,A,]2 [B,,A,]2 [C,A,]2 [D,F,][E,G,] | [F,A,]2 [G,B,]2 [A,,A,]2 F,A, | %5
w: cold~ and~ chill~ is~ the~|win try~ blast;~ Though~ the~|
 [D,D]2 [E,C]2 [F,D]2 [F,D][G,C] | [D,D]2 [D,D]2 [D,D][D,B,] [D,D]2 | %7
w: cloud y~ sky~ is~ still~|cloud ier~ grow ing,~ And~|
 [A,,A,]2 [A,,F,]2 [A,,E,]2 [A,,D,][A,,E,] | [D,F,]2 [G,,G,]2 [D,F,]2 A,B, | %9
w: dead~ leaves~ tell~ that~ the~|sum has~ passed,~ Yet~ my~|
 [A,,A,]2 [A,,F,]2 [A,,E,]2 [D,F,][D,A,] | [D,D]2 [D,D]2 [G,D][G,B,] [^G,B,]2 | %11
w: face~ I~ hold~ to~ the~|storm y~ heav en,~ My~|
 A,2 A,2 [A,,A,]2 [A,,A,][A,,A,] | [D,A,]2 [E,^G,]2 [A,,A,]2 F,A, | %13
w: heart~ as~ calm~ as~ a~|sum mer~ sea;~ I~ am~|
 [D,D]2 [E,C]2 [F,D]2 [F,D][G,C] | [D,D]2 [D,D]2 [D,D]2 [D,B,]2 | [A,,A,]4 [A,,A,]2 [C,G,]2 | %16
w: glad~ to~ ceive~ what~ my~|God~ hath~ giv en,~|What e'er~ it~|
 [D,F,]6 z2 |] %17
w: be.~|
V:4
 z4 z2 D,2 | x8 | x8 | x8 | z4 z2 D,2 | x8 | x8 | x8 | z4 z2 A,,2 | x8 | x8 | x8 | z4 z2 D,2 | x8 | %14
 x8 | x8 | x8 |] %17

